T: Calvin Cycle
M: 4/4
L: 1/8
K: Dmin
|DEFA-| Afe/dc|dcAG-|GAE2|DEFA-|Afe/dc-|1cdcA|GAE2:|2cd/de|fefg||
|:a3g-|gefd|ecdA-|AA/B/A/G/F|GBAD-|1DAde|ffge-|ede/eg:|2DDFD|GGAE-|EEFE||
